logo/google-ads.svg

<?xml version="1.0" encoding="UTF-8"?>
<svg width="256px" height="230px" viewBox="0 0 256 230" version="1.1" xmlns="http://www.w3.org/2000/svg" xmlns:xlink="http://www.w3.org/1999/xlink" preserveAspectRatio="xMidYMid">
    <g>
				<path d="M5.888,166.405103 L90.88,20.9 C101.676138,27.2558621 156.115862,57.3844138 164.908138,63.1135172 L79.9161379,208.627448 C70.6206897,220.906621 -5.888,185.040138 5.888,166.396276 L5.888,166.405103 Z" fill="#FBBC04"></path>
				<path d="M250.084224,166.401789 L165.092224,20.9055131 C153.210293,1.13172 127.619121,-6.05393517 106.600638,5.62496138 C85.582155,17.3038579 79.182155,42.4624786 91.0640861,63.1190303 L176.056086,208.632961 C187.938017,228.397927 213.52919,235.583582 234.547672,223.904686 C254.648086,212.225789 261.966155,186.175582 250.084224,166.419444 L250.084224,166.401789 Z" fill="#4285F4"></path>
				<ellipse fill="#34A853" cx="42.6637241" cy="187.924414" rx="42.6637241" ry="41.6044138"></ellipse>
    </g>
</svg>

<svg viewBox="0 0 256 230" xmlns="http://www.w3.org/2000/svg"><path fill="#FBBC04" d="M5.888 166.4l84.99-145.51c10.79 6.35 65.23 36.48 74.02 42.21l-85 145.51c-9.3 12.27-85.81-23.59-74.03-42.24v0Z"/><path fill="#4285F4" d="M250.08 166.4l-85-145.5C153.19 1.12 127.6-6.06 106.58 5.61 85.56 17.28 79.16 42.44 91.04 63.1l84.99 145.51c11.88 19.76 37.47 26.95 58.49 15.27 20.1-11.68 27.41-37.73 15.53-57.49v-.02Z"/><path fill="#34A853" d="M42.66 146.32a42.66 41.6 0 1 0 0 83.2 42.66 41.6 0 1 0 0-83.21Z"/></svg>
